ui/src/assets/pointing-finger.svg

<svg viewBox="0 0 20 20" fill="none" xmlns="http://www.w3.org/2000/svg">
    <g clip-path="url(#clip0_3161_200)">
        <path d="M7.49967 9.36667V6.25C7.49967 5.69747 7.71917 5.16756 8.10987 4.77686C8.50057 4.38616 9.03047 4.16667 9.58301 4.16667C10.1355 4.16667 10.6654 4.38616 11.0561 4.77686C11.4468 5.16756 11.6663 5.69747 11.6663 6.25V9.36667C12.6747 8.69167 13.333 7.55 13.333 6.25C13.333 4.175 11.658 2.5 9.58301 2.5C7.50801 2.5 5.83301 4.175 5.83301 6.25C5.83301 7.55 6.49134 8.69167 7.49967 9.36667ZM15.6997 13.225L11.9163 11.3417C11.7747 11.2833 11.6247 11.25 11.4663 11.25H10.833V6.25C10.833 5.55833 10.2747 5 9.58301 5C8.89134 5 8.33301 5.55833 8.33301 6.25V15.2C5.33301 14.5667 5.38301 14.575 5.27467 14.575C5.01634 14.575 4.78301 14.6833 4.61634 14.85L3.95801 15.5167L8.07467 19.6333C8.29967 19.8583 8.61634 20 8.95801 20H14.6163C15.2413 20 15.7247 19.5417 15.8163 18.9333L16.4413 14.5417C16.4497 14.4833 16.458 14.425 16.458 14.375C16.458 13.8583 16.1413 13.4083 15.6997 13.225Z"
              fill="black"/>
    </g>
    <defs>
        <clipPath id="clip0_3161_200">
            <rect width="20" height="20" fill="white"/>
        </clipPath>
    </defs>
</svg>

<svg xmlns="http://www.w3.org/2000/svg" fill="none" viewBox="0 0 20 20"><g clip-path="url(#a)"><path fill="#000" d="M7.5 9.367V6.25a2.083 2.083 0 0 1 4.166 0v3.117a3.738 3.738 0 0 0 1.667-3.117 3.745 3.745 0 0 0-3.75-3.75 3.745 3.745 0 0 0-3.75 3.75c0 1.3.658 2.442 1.667 3.117Zm8.2 3.858-3.784-1.883a1.172 1.172 0 0 0-.45-.092h-.633v-5c0-.692-.558-1.25-1.25-1.25s-1.25.558-1.25 1.25v8.95c-3-.633-2.95-.625-3.058-.625a.932.932 0 0 0-.659.275l-.658.667 4.117 4.116c.225.225.541.367.883.367h5.658c.625 0 1.109-.458 1.2-1.067l.625-4.391c.009-.059.017-.117.017-.167 0-.517-.317-.967-.758-1.15Z"/></g><defs><clipPath id="a"><path fill="#fff" d="M0 0h20v20H0z"/></clipPath></defs></svg>
